app/assets/images/static_page_bottom_bg.svg

<svg width="1440" height="717" fill="none" xmlns="http://www.w3.org/2000/svg"><g opacity=".147"><path fill="none" d="M-154 0h1765v717H-154z"/><g opacity=".7"><path fill="none" d="M1041 0h570v717h-570z"/><path fill="none" d="M1041.97.022h568.77v716.245h-568.77z"/><path d="M1195.31 10.199c1.14-4.268 5.53-6.8 9.8-5.657l375.75 100.683a8.003 8.003 0 0 1 5.66 9.798L1437.7 670.428c-1.15 4.267-5.53 6.8-9.8 5.656l-375.75-100.683c-4.27-1.143-6.81-5.53-5.66-9.798l148.82-555.404z" stroke="#fff" stroke-width="4"/><path d="M1215.01 45.861c1.14-4.268 5.53-6.8 9.8-5.657l375.75 100.683a8.003 8.003 0 0 1 5.66 9.798L1457.4 706.09c-1.15 4.268-5.53 6.8-9.8 5.657l-375.75-100.683c-4.27-1.144-6.81-5.53-5.66-9.798l148.82-555.405z" stroke="#fff" stroke-width="4"/></g><g opacity=".7"><path fill="none" d="M982 190h117v335H982z"/><path d="M1068.68 200.818c1.15-4.268 5.53-6.801 9.8-5.657l10.18 2.727a8.002 8.002 0 0 1 5.66 9.797l-78.66 293.546a7.794 7.794 0 0 1-2.28 3.763c-2.38 2.153-6.37 5.7-9.99 8.638-1.81 1.474-3.495 2.762-4.816 3.641-.488.324-.897.573-1.225.75a15.803 15.803 0 0 1-.675-1.257c-.697-1.421-1.498-3.377-2.32-5.559-1.638-4.352-3.286-9.413-4.249-12.457a7.757 7.757 0 0 1-.083-4.359l78.658-293.573zm-71.951 317.488c-.012.002-.009.001.006-.002l-.006.002z" stroke="#fff" stroke-width="4"/></g><path fill="none" d="M-154 323h354v276h-354z"/><path d="M-71.379 333.206a8 8 0 0 1 9.798-5.657l250.514 67.125a8 8 0 0 1 5.657 9.798L150.175 570.23a8 8 0 0 1-9.798 5.656l-250.514-67.125a8 8 0 0 1-5.657-9.798l44.415-165.757z" stroke="#fff" stroke-width="4"/><path d="M-104.217 351.042a7.999 7.999 0 0 1 9.798-5.657l250.514 67.125a8 8 0 0 1 5.656 9.798l-44.414 165.758a8 8 0 0 1-9.798 5.657l-250.514-67.125a8 8 0 0 1-5.657-9.798l44.415-165.758z" stroke="#fff" stroke-width="4"/></g></svg>

<svg width="1440" height="717" viewBox="0 0 1440 717" fill="none" xmlns="http://www.w3.org/2000/svg">
<g opacity="0.147">
<rect width="1765" height="717" fill="black" fill-opacity="0" transform="translate(-154)"/>
<g opacity="0.7">
<rect width="570" height="717" fill="black" fill-opacity="0" transform="translate(1041)"/>
<rect width="568.77" height="716.245" fill="black" fill-opacity="0" transform="translate(1041.97 0.0217285)"/>
<path d="M1195.31 10.1986C1196.45 5.9309 1200.84 3.39824 1205.11 4.54177L1580.86 105.225C1585.13 106.368 1587.66 110.755 1586.52 115.023L1437.7 670.428C1436.55 674.695 1432.17 677.228 1427.9 676.084L1052.15 575.401C1047.88 574.258 1045.34 569.871 1046.49 565.603L1195.31 10.1986Z" stroke="white" stroke-width="4"/>
<path d="M1215.01 45.861C1216.15 41.5932 1220.54 39.0606 1224.81 40.2041L1600.56 140.887C1604.83 142.031 1607.36 146.417 1606.22 150.685L1457.4 706.09C1456.25 710.358 1451.87 712.89 1447.6 711.747L1071.85 611.064C1067.58 609.92 1065.04 605.534 1066.19 601.266L1215.01 45.861Z" stroke="white" stroke-width="4"/>
</g>
<g opacity="0.7">
<rect width="117" height="335" fill="black" fill-opacity="0" transform="translate(982 190)"/>
<path d="M1068.68 200.818C1069.83 196.55 1074.21 194.017 1078.48 195.161L1088.66 197.888C1092.93 199.031 1095.46 203.418 1094.32 207.685L1015.66 501.231C1015.27 502.689 1014.48 503.995 1013.38 504.994C1011 507.147 1007.01 510.694 1003.39 513.632C1001.58 515.106 999.895 516.394 998.574 517.273C998.086 517.597 997.677 517.846 997.349 518.023C997.156 517.707 996.93 517.289 996.674 516.766C995.977 515.345 995.176 513.389 994.354 511.207C992.716 506.855 991.068 501.794 990.105 498.75C989.66 497.344 989.634 495.836 990.022 494.391L1068.68 200.818ZM996.729 518.306C996.717 518.308 996.72 518.307 996.735 518.304C996.732 518.305 996.73 518.305 996.729 518.306Z" stroke="white" stroke-width="4"/>
</g>
<rect width="354" height="276" fill="black" fill-opacity="0" transform="translate(-154 323)"/>
<path d="M-71.379 333.206C-70.2355 328.938 -65.8488 326.405 -61.581 327.549L188.933 394.674C193.201 395.817 195.733 400.204 194.59 404.472L150.175 570.23C149.032 574.497 144.645 577.03 140.377 575.886L-110.137 508.761C-114.405 507.618 -116.937 503.231 -115.794 498.963L-71.379 333.206Z" stroke="white" stroke-width="4"/>
<path d="M-104.217 351.042C-103.074 346.774 -98.6871 344.241 -94.4194 345.385L156.095 412.51C160.362 413.654 162.895 418.04 161.751 422.308L117.337 588.066C116.193 592.334 111.806 594.866 107.539 593.723L-142.975 526.598C-147.243 525.454 -149.776 521.067 -148.632 516.8L-104.217 351.042Z" stroke="white" stroke-width="4"/>
</g>
</svg>
